azure-patterns/svg-shield-keyhole.svg

<svg xmlns="http://www.w3.org/2000/svg" viewBox="0 0 49 48">
                                
                            
    <rect opacity="0.6" x="0.488281" width="48" height="48" fill="white"></rect>
    <path d="M24.5746 45.6232H24.4024C19.7531 45.4511 7.18262 37.1855 7.18262 21.6016V9.37555L8.12971 9.46165C8.21581 9.46165 16.0508 10.3226 23.9719 2.83202L24.5746 2.31543L25.1773 2.74592C33.615 9.54775 40.9334 9.46165 40.9334 9.46165H41.7944V21.6877C41.7944 37.1855 29.224 45.4511 24.5746 45.6232Z" fill="#0078D4"></path>
    <path d="M25.6075 24.7016V30.298H23.369V24.7016C22.3358 24.2711 21.647 23.2379 21.647 22.1186C21.647 20.5688 22.9385 19.2773 24.4882 19.2773C26.038 19.2773 27.3295 20.5688 27.3295 22.1186C27.3295 23.2379 26.6407 24.2711 25.6075 24.7016Z" fill="#50E6FF"></path>
</svg>

<svg xmlns="http://www.w3.org/2000/svg" viewBox="0 0 49 48"><path opacity=".6" fill="#fff" d="M.488 0h48v48h-48z"/><path d="M24.575 45.623h-.173c-4.649-.172-17.22-8.438-17.22-24.021V9.376l.948.086c.086 0 7.92.86 15.842-6.63l.603-.517.602.43c8.438 6.803 15.756 6.717 15.756 6.717h.861v12.226c0 15.497-12.57 23.763-17.22 23.935z" fill="#0078D4"/><path d="M25.608 24.702v5.596h-2.239v-5.596a2.82 2.82 0 0 1-1.722-2.583c0-1.55 1.292-2.842 2.841-2.842 1.55 0 2.841 1.292 2.841 2.842a2.82 2.82 0 0 1-1.721 2.583z" fill="#50E6FF"/></svg>
